X: 21210
T: Katy Hill
R: reel
M: 4/4
K: Gmajor
d|d2 ga bgag|egdg eage|dega bgag|edde g3 e|
gdga bgag|egdg efga|gedB AGEG|DEGB AGG:|
A|B3 G AGEF|GABd efge|dBGB AGEG|DEGB AGGA|
B3 G AGEF|GABd efga|gedB AGEG|DEGB AGG:|

